!!!OTL: Dayuren shieryue
!!!ARE: Asia, China,ÿLiaoning Changhai
!! III, 226
!!!SCT: C1736
!!!YEM: Copyright 1995, estate of Helmut Schaffrath.
**kern
*ICvox
*Ivox
*M4/4
*k[f#c#g#d#]
*E:
{8ee
4ee
8ee
8cc#
16dd#
16cc#
8b
8g#
=1
8cc#
16cc#
16ee
8b
8g#
4.f#
8c#}
=2
{8g#
4g#
8b
4ee
8cc#
8ee
=3
4ee
8g#
8f#
2e}
=4
{8ee
8ee
8cc#
8ee
8g#
4.b
=5
8cc#
8cc#
8ee
8g#
2f#}
=6
{8g#
16g#
16b
4cc#
8ee
8g#
4f#
=7
8ee
8ee
8cc#
8ee
8g#
16g#
16f#
4e}
=8
{8g#
16g#
16b
8cc#
8cc#
8ee
8g#
4f#
=9
8ee
8ee
8cc#
16cc#
16ee
8g#
16g#
16f#
4e}
==
!!!AGN: Xiaodiao, Shieryue diao
!!!AMT: simple quadruple
!!!AIN: vox
!!!EED: Helmut Schaffrath
!!!EEV: 1.0
*-
